src/assets/Home/hidubai.svg

<svg width="72" height="15" viewBox="0 0 72 15" fill="none" xmlns="http://www.w3.org/2000/svg">
<path fill-rule="evenodd" clip-rule="evenodd" d="M69.7932 4.33884C70.4094 4.33884 70.9089 4.83831 70.9089 5.45455V11.5289C70.9089 13.446 69.3548 15 67.4378 15C66.2322 15 65.1705 14.3851 64.5482 13.4521C63.5655 14.4094 62.2239 15 60.7436 15C59.2633 15 57.9216 14.4094 56.9389 13.4521C56.3166 14.3851 55.2549 15 54.0494 15C52.8438 15 51.7821 14.3851 51.1598 13.4521C50.1771 14.4094 48.8354 15 47.3551 15C45.8748 15 44.5331 14.4094 43.5505 13.4521C42.9282 14.3851 41.8665 15 40.6609 15C39.5669 15 38.5917 14.4933 37.9555 13.7023C37.1104 14.5059 35.9685 15 34.7105 15C33.4525 15 32.3106 14.5059 31.4655 13.7023C30.8293 14.4933 29.8541 15 28.7601 15C27.5545 15 26.4929 14.3851 25.8705 13.4521C24.8879 14.4094 23.5462 15 22.0659 15C19.0534 15 16.6113 12.558 16.6113 9.54545C16.6113 6.53293 19.0534 4.09091 22.0659 4.09091C23.2719 4.09091 24.3859 4.48314 25.289 5.14574V1.23967C25.289 0.62343 25.7885 0.123967 26.4047 0.123967C27.021 0.123967 27.5204 0.62343 27.5204 1.23967V11.5289C27.5204 12.2136 28.0755 12.7686 28.7601 12.7686C29.4446 12.7686 29.9998 12.2136 29.9998 11.5289V5.45455C29.9998 4.83831 30.4992 4.33884 31.1155 4.33884C31.7317 4.33884 32.2312 4.83831 32.2312 5.45455V10.2893C32.2312 11.6586 33.3412 12.7686 34.7105 12.7686C36.0798 12.7686 37.1898 11.6586 37.1898 10.2893V5.45455C37.1898 4.83831 37.6893 4.33884 38.3055 4.33884C38.9218 4.33884 39.4212 4.83831 39.4212 5.45455V11.5289C39.4212 12.2136 39.9764 12.7686 40.6609 12.7686C41.3455 12.7686 41.9006 12.2136 41.9006 11.5289V1.23967C41.9006 0.62343 42.4001 0.123967 43.0163 0.123967C43.6325 0.123967 44.132 0.62343 44.132 1.23967V5.14574C45.0351 4.48314 46.1491 4.09091 47.3551 4.09091C50.3677 4.09091 52.8097 6.53293 52.8097 9.54545V11.5289C52.8097 12.2136 53.3648 12.7686 54.0494 12.7686C54.7339 12.7686 55.289 12.2136 55.289 11.5289V9.54545C55.289 6.53293 57.731 4.09091 60.7436 4.09091C61.966 4.09091 63.0946 4.49318 64.0041 5.1724C64.1293 4.69302 64.5639 4.33884 65.0824 4.33884C65.6987 4.33884 66.1981 4.83831 66.1981 5.45455V11.5289C66.1981 12.2136 66.7532 12.7686 67.4378 12.7686C68.1223 12.7686 68.6774 12.2136 68.6774 11.5289V5.45455C68.6774 4.83831 69.1769 4.33884 69.7932 4.33884ZM60.7436 12.7686C62.5236 12.7686 63.9667 11.3255 63.9667 9.54545C63.9667 7.76541 62.5236 6.32231 60.7436 6.32231C58.9635 6.32231 57.5204 7.76541 57.5204 9.54545C57.5204 11.3255 58.9635 12.7686 60.7436 12.7686ZM47.3551 12.7686C49.1352 12.7686 50.5783 11.3255 50.5783 9.54545C50.5783 7.76541 49.1352 6.32231 47.3551 6.32231C45.5751 6.32231 44.132 7.76541 44.132 9.54545C44.132 11.3255 45.5751 12.7686 47.3551 12.7686ZM22.0659 12.7686C23.8459 12.7686 25.289 11.3255 25.289 9.54545C25.289 7.76541 23.8459 6.32231 22.0659 6.32231C20.2858 6.32231 18.8427 7.76541 18.8427 9.54545C18.8427 11.3255 20.2858 12.7686 22.0659 12.7686ZM69.7932 2.72727C69.0401 2.72727 68.4295 2.11674 68.4295 1.36364C68.4295 0.610537 69.0401 0 69.7932 0C70.5463 0 71.1568 0.610537 71.1568 1.36364C71.1568 2.11674 70.5463 2.72727 69.7932 2.72727Z" fill="#00C1BC"/>
<path fill-rule="evenodd" clip-rule="evenodd" d="M13.0165 2.72727C12.2634 2.72727 11.6529 2.11674 11.6529 1.36364C11.6529 0.610537 12.2634 0 13.0165 0C13.7696 0 14.3802 0.610537 14.3802 1.36364C14.3802 2.11674 13.7696 2.72727 13.0165 2.72727ZM13.0165 4.33884C13.6328 4.33884 14.1322 4.83831 14.1322 5.45455V11.5289C14.1322 13.446 12.5782 15 10.6612 15C8.86983 15 7.39574 13.6429 7.21017 11.9008H7.19008V8.80165C7.19008 7.43231 6.08008 6.32231 4.71074 6.32231C3.34141 6.32231 2.2314 7.43231 2.2314 8.80165V13.6364C2.2314 14.2526 1.73194 14.7521 1.1157 14.7521C0.499463 14.7521 0 14.2526 0 13.6364V1.23967C0 0.62343 0.499463 0.123967 1.1157 0.123967C1.73194 0.123967 2.2314 0.62343 2.2314 1.23967V4.7964C2.95178 4.34963 3.80083 4.09091 4.71074 4.09091C7.31231 4.09091 9.42149 6.19996 9.42149 8.80165V11.5289C9.42149 12.2136 9.97661 12.7686 10.6612 12.7686C11.3457 12.7686 11.9008 12.2136 11.9008 11.5289V5.45455C11.9008 4.83831 12.4003 4.33884 13.0165 4.33884Z" fill="#1A7BA1"/>
</svg>

<svg xmlns="http://www.w3.org/2000/svg" width="72" height="15" fill="none" viewBox="0 0 72 15"><path fill="#00c1bc" fill-rule="evenodd" d="M69.793 4.339c.616 0 1.116.5 1.116 1.116v6.074a3.471 3.471 0 0 1-6.36 1.923A5.44 5.44 0 0 1 60.743 15c-1.48 0-2.822-.59-3.805-1.548A3.47 3.47 0 0 1 54.049 15a3.47 3.47 0 0 1-2.89-1.548A5.44 5.44 0 0 1 47.356 15c-1.48 0-2.822-.59-3.804-1.548a3.468 3.468 0 0 1-5.596.25A4.7 4.7 0 0 1 34.712 15c-1.258 0-2.4-.494-3.245-1.298a3.468 3.468 0 0 1-5.595-.25 5.455 5.455 0 1 1-.581-8.306V1.24a1.116 1.116 0 1 1 2.23 0v10.289a1.24 1.24 0 0 0 2.48 0V5.455a1.116 1.116 0 1 1 2.231 0v4.834a2.48 2.48 0 1 0 4.959 0V5.455a1.116 1.116 0 1 1 2.231 0v6.074a1.24 1.24 0 0 0 2.48 0V1.239a1.116 1.116 0 1 1 2.231 0v3.907a5.454 5.454 0 0 1 8.678 4.4v1.983a1.24 1.24 0 0 0 2.479 0V9.545a5.454 5.454 0 0 1 8.715-4.373 1.115 1.115 0 0 1 2.194.283v6.074a1.24 1.24 0 0 0 2.48 0V5.455c0-.617.499-1.116 1.115-1.116m-9.05 8.43a3.223 3.223 0 1 0 0-6.447 3.223 3.223 0 0 0 0 6.447m-13.388 0a3.223 3.223 0 1 0 0-6.447 3.223 3.223 0 0 0 0 6.447m-25.29 0a3.223 3.223 0 1 0 0-6.447 3.223 3.223 0 0 0 0 6.447M69.794 2.727a1.364 1.364 0 1 1 0-2.727 1.364 1.364 0 0 1 0 2.727" clip-rule="evenodd"/><path fill="#1a7ba1" fill-rule="evenodd" d="M13.017 2.727a1.364 1.364 0 1 1 0-2.727 1.364 1.364 0 0 1 0 2.727m0 1.612c.616 0 1.115.5 1.115 1.116v6.074a3.471 3.471 0 0 1-6.922.372h-.02V8.8a2.48 2.48 0 1 0-4.959 0v4.835a1.116 1.116 0 1 1-2.231 0V1.24a1.116 1.116 0 1 1 2.231 0v3.556a4.71 4.71 0 0 1 7.19 4.005v2.728a1.24 1.24 0 0 0 2.48 0V5.455c0-.617.5-1.116 1.116-1.116" clip-rule="evenodd"/></svg>
